X: 41265
T: Tucandeira Dance
R: reel
M: 4/4
K: Dmajor
|FABB Bfed|fdBB B f2 e|afBB Bfed|ef d2 BFAA|
AF A2 FABB|Bfed fdBB|B f2 e afBB|Bfed ef d2|BFAA AF A2|
fabb bfaf|ef2 e feaa|afbb bfaf|ef2 d ef d2|
fabb bfaf|ef2 e feaa|af ba fefe|dBee efed|BABB BF A2:|

